X:1
T:Goofus
C:1930 - Wayne King / William Harold / Gus Kahn
Z:www.realbook.site
L:1/4
M:2/2
I:linebreak $
K:G
V:1 treble nm=" " snm=" "
V:1
|:"D" d d B B/>A/ | d d/>A/ B/>d/ B/>A/ |"G" G G E E/>D/ | G G/>D/ E/>G/ E/>^D/ |1$ %4
"D" =d d B B/>A/ | d d B"D7" A |"G" G4 | z4 :|2$"E7" E ^G/B/ e2 |"A7" A ^c/B/ A2 | %10
"D7" D/>^D/ E/>^E/ F/ d B/ |"G" G2- G!fine! z |]:$"G7" D E G G | D E G2 |"F#7" ^C ^D F F | %15
 ^C ^D F2 |$"F7" =C =D =F F | C D =F2 |"E7" B2"A7" e2 |"D" d2"D7" A2 :| %20

